!!!COM:	Bach, Johann Sebastian
!!!CDT:	1685/02/21/-1750/07/28/
!!!OTL@@DE:	Lobet den Herren, denn er ist freundlich
!!!SCT:	BWV 374
!!!PC#:	227
!!!AGN:	chorale
**kern	**kern	**kern	**kern
*ICvox	*ICvox	*ICvox	*ICvox
*Ibass	*Itenor	*Ialto	*Isoprn
*I"Bass	*I"Tenor	*I"Alto	*I"Soprano
*clefF4	*clefGv2	*clefG2	*clefG2
*k[b-]	*k[b-]	*k[b-]	*k[b-]
*d:	*d:	*d:	*d:
*M4/4	*M4/4	*M4/4	*M4/4
*met(c)	*met(c)	*met(c)	*met(c)
*MM100	*MM100	*MM100	*MM100
8GGL	8B-L	8dL	4g
8AAJ	8AJ	8cJ	.
=1	=1	=1	=1
8BB-L	8GL	8B-L	4d
8AAJ	8AJ	8cJ	.
4GG	[4B-	[4d	4g
2E-	8B-L]	8dL]	2g
.	16AL	16cL	.
.	16GJJ	16B-JJ	.
.	4c	8AL	.
.	.	8GJ	.
=2	=2	=2	=2
2D;	2F#;	2d;	2a;
4r	4ry	4ry	4r
4D	4d	4f#	4a
=3	=3	=3	=3
4G	8dL	4g	8b-L
.	8eJ	.	8ccJ
8FnXL	4f	4a	4dd
8GJ	.	.	.
2A	8eL	2a	2cc#
.	8dJ	.	.
.	16eLL	.	.
.	16f#J	.	.
.	8gJ	.	.
=4	=4	=4	=4
2D;	2f#;	2a;	2dd;
8GL	4d	8gL	4b-
8FJ	.	8aJ	.
8E-L	4fnX	[4b-	4b-
8DJ	.	.	.
=5	=5	=5	=5
8E-L	4g	4b-]	4cc
8CJ	.	.	.
8FL	4f	4a	4cc
8FFJ	.	.	.
8BB-L	4f	4.b-	2dd
8C	.	.	.
8D	4f	.	.
8BB-J	.	8a-	.
=6	=6	=6	=6
2E-;	2e-;	2g;	2b-;
4r	4ry	4ry	4r
4BB-	4f	4b-	4dd
=7	=7	=7	=7
8FL	8fL	8aL	4cc
8G	8B-	8gJ	.
8A	8A	8fL	4cc
8B-J	8GJ	8eJ	.
8AL	8AL	8fL	4cc
8G	8B-J	8gJ	.
8F	[4c	8aL	4a
8EJ	.	8gJ	.
=8	=8	=8	=8
8F#L	8cL]	8aL	4dd
8D	[8B-J	8f#J	.
8E	8B-L]	8gL	4cc
8F#J	8AJ	[8aJ	.
4G	16B-LL	8aL]	4b-
.	16cJ	.	.
.	8dJ	[8gJ	.
4D	8.dL	8gL]	4a
.	.	8f#J	.
.	16cJk	.	.
=9	=9	=9	=9
2E-	8B-	8.gL	2g
.	4d	.	.
.	.	16f#Jk	.
.	.	8gL	.
.	8c	8GJ	.
2D;	2F#;	2d;	2a;
=10	=10	=10	=10
4GG	4G	8dL	4b-
.	.	8eJ	.
4AA	4c	8fnXL	4a
.	.	8f#J	.
8BB-L	8dL	8gL	4g
8CJ	16cL	8e-J	.
.	16B-JJ	.	.
8DL	4A	[4d	4f#
8CJ	.	.	.
=11	=11	=11	=11
8BB-L	8GL	8dL]	2g
8AA	8DJ	8c	.
8BB-	2G	8d	.
8GGJ	.	8B-J	.
2D;	.	2d;	2a;
.	4F#;	.	.
=12	=12	=12	=12
4r	4ry	4ry	4r
4D	4A	4f#	4dd
8GL	8GL	4d	4b-
8FnXJ	8AJ	.	.
4E-	8B-L	4g	4b-
.	8cJ	.	.
=13	=13	=13	=13
8DL	8dL	[4f	4b-
8CJ	8e-J	.	.
[4BB-	8dL	8fL]	4dd
.	8B-J	16gL	.
.	.	16fJJ	.
8BB-L]	8GL	8eL	4cc
8AAJ	8AJ	8f#J	.
8GGL	16B-LL	[4g	4b-
.	16cJ	.	.
8BB-J	8dJ	.	.
=14	=14	=14	=14
8CL	8e-L	8gL]	4a
8D	16dL	8f#J	.
.	16cJJ	.	.
8E-X	8B-L	4g	4g
8DJ	16cL	.	.
.	16dJJ	.	.
8CL	4e-	4g	2a
8AAJ	.	.	.
4D	8.dL	4f#	.
.	16cJk	.	.
=15	=15	=15	=15
2GG;	2B-;	2d;	2g;
4r	4ry	4ry	4r
8GGL	8B-L	4d	4g
8AAJ	8AJ	.	.
=16	=16	=16	=16
8BB-L	8GL	4d	4d
8AA	8AJ	.	.
8GG	8B-L	[4d	4g
8FFJ	8AJ	.	.
2EE-	4.G	8dL]	2g
.	.	16cL	.
.	.	16B-JJ	.
.	.	8AL	.
.	8c	8GJ	.
=17	=17	=17	=17
2DD;	2F#;	2d;	2a;
4r	4ry	4ry	4r
4D	4d	4f#	4a
=18	=18	=18	=18
4G	4d	4g	8b-L
.	.	.	8ccJ
8FnXL	8AL	8aL	4dd
8GJ	8B-J	8eJ	.
4A	2A	8eL	2cc#
.	.	8f#J	.
4AA	.	4g	.
=19	=19	=19	=19
2.D;	2.A;	2.f#;	2.dd;
==	==	==	==
*-	*-	*-	*-
!!!hum2abc: -Q ''
!!!title: @{PC#}. @{OTL@@DE}
!!!YOR1: 371 vierstimmige Choralges&auml;nge von Johann Sebastian Bach, 
!!!YOR2: 4th ed. by Alfred D&ouml;rffel (Leipzig: Breitkopf und H&auml;rtel, 
!!!YOR2: c.1875). 178 pp. Plate "V.A.10".  reprint: J.S. Bach, 371 Four-Part 
!!!YOR4: Chorales (New York: Associated Music Publishers, Inc., c.1940).
!!!SMS: B&H, 4th ed, Alfred D&ouml;rffel, c.1875, plate V.A.10
!!!EED:  Craig Stuart Sapp
!!!EEV:  2009/05/22
